X: 4
T: The Flooded Road To Glenties
R: reel
M: 4/4
L: 1/8
K: Bdor
FB BF Bcaf | cfeB cBAB | FB BB Bc af | gfeg ef ff |fgfe cfec | BF cF cdfg | afff ecef |1 cfec ABBA :|2 cfec ABBc ||dB BB aBgB | fB BB cBAc | FB BB cAaf | gfeg effg |fafe cfec | BFBc defg | af.ff ecfe | cfec ABBc :|


Tune 3440	Setting 16482

